X: 10
T: First Month Of Summer, The
Z: Summer Lawton
S: https://thesession.org/tunes/493#setting50407
R: reel
M: 4/4
L: 1/8
K: Bdor
dBBA F3A | d2 de fafe | dBBB BAFA | BdcA B2Bc |
dBBB BAFA |d2 de fafe | dBBB BAFA | BdcA Bcde ||
fdBd ~d2 de | fab(a a)fea |fdBd ~d2 de | faba fede |
fdBd ~d2 de | fabf afaf | bfbf afaf | bfaf eafe ||

%-------------------- TUNE SEPARATOR --------------------%

